img/gravadores.svg

<svg version="1.1" id="Layer_1" xmlns="http://www.w3.org/2000/svg" x="0" y="0" viewBox="0 0 38 38" xml:space="preserve"><style>.st1{fill:#fff}</style><path class="st1" d="M23.8 1.1H9.6v6.3h16.8c4.7 0 8.5 3.8 8.5 8.5 0 3.8-2.7 7.2-6.4 8.1v-.8c0-7.5-6.1-13.7-13.6-13.7S1.2 15.7 1.2 23.2c0 7.5 6.2 13.7 13.7 13.7 4.9 0 9.3-2.7 11.7-6.6C32.6 29 37 23.7 37 17.6v-3.3C36.9 7 31 1.1 23.8 1.1zm-1.7 4.2H18V3.2h4.2v2.1zM11.7 3.2h4.2v2.1h-4.2V3.2zm14.6 2.1h-2.1V3.2c3.2.1 6 1.6 7.9 3.9-1.7-1.2-3.7-1.8-5.8-1.8zM14.8 34.8c-6.4 0-11.6-5.2-11.6-11.6s5.2-11.6 11.6-11.6c6.4 0 11.5 5.2 11.5 11.6s-5.1 11.6-11.5 11.6zm12.9-7.1c.2-.5.3-1 .4-1.5 1.4-.2 2.8-.8 4-1.6-1.2 1.4-2.7 2.5-4.4 3.1z"/><path class="st1" d="M14.8 20c1.7 0 3.1-1.4 3.1-3.1 0-1.7-1.4-3.1-3.1-3.1s-3.1 1.4-3.1 3.1c0 1.7 1.4 3.1 3.1 3.1zm0-4.1c.6 0 1 .5 1 1 0 .6-.5 1-1 1s-1-.5-1-1c0-.6.4-1 1-1zM14.8 26.3c-1.7 0-3.1 1.4-3.1 3.1 0 1.7 1.4 3.1 3.1 3.1s3.1-1.4 3.1-3.1c.1-1.7-1.4-3.1-3.1-3.1zm0 4.2c-.6 0-1-.5-1-1 0-.6.5-1 1-1s1 .5 1 1c.1.6-.4 1-1 1zM8.5 20c-1.7 0-3.1 1.4-3.1 3.1 0 1.7 1.4 3.1 3.1 3.1s3.1-1.4 3.1-3.1c.1-1.6-1.3-3.1-3.1-3.1zm0 4.2c-.6 0-1-.5-1-1 0-.6.5-1 1-1s1 .5 1 1c.1.6-.4 1-1 1zM21.1 20c-1.7 0-3.1 1.4-3.1 3.1 0 1.7 1.4 3.1 3.1 3.1 1.7 0 3.1-1.4 3.1-3.1 0-1.6-1.4-3.1-3.1-3.1zm0 4.2c-.6 0-1-.5-1-1 0-.6.5-1 1-1 .6 0 1 .5 1 1 0 .6-.4 1-1 1zM13.8 22.1h2.1v2.1h-2.1v-2.1z"/></svg>

<?xml version="1.0" encoding="utf-8"?>
<!-- Generator: Adobe Illustrator 24.2.3, SVG Export Plug-In . SVG Version: 6.00 Build 0)  -->
<svg version="1.1" id="Layer_1" xmlns="http://www.w3.org/2000/svg" xmlns:xlink="http://www.w3.org/1999/xlink" x="0px" y="0px"
	 viewBox="0 0 38 38" style="enable-background:new 0 0 38 38;" xml:space="preserve">
<style type="text/css">
	.st0{fill:#090909;}
	.st1{fill:#FFFFFF;}
	.st2{fill:#FFFFFF;stroke:#090909;stroke-miterlimit:10;}
</style>
<g>
	<path class="st1" d="M23.8,1.1H9.6v6.3h16.8c4.7,0,8.5,3.8,8.5,8.5c0,3.8-2.7,7.2-6.4,8.1c0-0.3,0-0.5,0-0.8
		c0-7.5-6.1-13.7-13.6-13.7c-7.5,0-13.7,6.2-13.7,13.7c0,7.5,6.2,13.7,13.7,13.7c4.9,0,9.3-2.7,11.7-6.6c6-1.3,10.4-6.6,10.4-12.7
		c0-1.1,0-2.3,0-3.3C36.9,7,31,1.1,23.8,1.1L23.8,1.1z M22.1,5.3H18V3.2h4.2V5.3z M11.7,3.2h4.2v2.1h-4.2V3.2z M26.3,5.3h-2.1V3.2
		c3.2,0.1,6,1.6,7.9,3.9C30.4,5.9,28.4,5.3,26.3,5.3z M14.8,34.8c-6.4,0-11.6-5.2-11.6-11.6s5.2-11.6,11.6-11.6
		c6.4,0,11.5,5.2,11.5,11.6S21.2,34.8,14.8,34.8z M27.7,27.7c0.2-0.5,0.3-1,0.4-1.5c1.4-0.2,2.8-0.8,4-1.6
		C30.9,26,29.4,27.1,27.7,27.7L27.7,27.7z"/>
	<path class="st1" d="M14.8,20c1.7,0,3.1-1.4,3.1-3.1c0-1.7-1.4-3.1-3.1-3.1s-3.1,1.4-3.1,3.1C11.7,18.6,13.1,20,14.8,20z
		 M14.8,15.9c0.6,0,1,0.5,1,1c0,0.6-0.5,1-1,1s-1-0.5-1-1C13.8,16.3,14.2,15.9,14.8,15.9z"/>
	<path class="st1" d="M14.8,26.3c-1.7,0-3.1,1.4-3.1,3.1c0,1.7,1.4,3.1,3.1,3.1s3.1-1.4,3.1-3.1C18,27.7,16.5,26.3,14.8,26.3z
		 M14.8,30.5c-0.6,0-1-0.5-1-1c0-0.6,0.5-1,1-1s1,0.5,1,1C15.9,30.1,15.4,30.5,14.8,30.5z"/>
	<path class="st1" d="M8.5,20c-1.7,0-3.1,1.4-3.1,3.1c0,1.7,1.4,3.1,3.1,3.1s3.1-1.4,3.1-3.1C11.7,21.5,10.3,20,8.5,20z M8.5,24.2
		c-0.6,0-1-0.5-1-1c0-0.6,0.5-1,1-1s1,0.5,1,1C9.6,23.8,9.1,24.2,8.5,24.2z"/>
	<path class="st1" d="M21.1,20c-1.7,0-3.1,1.4-3.1,3.1c0,1.7,1.4,3.1,3.1,3.1c1.7,0,3.1-1.4,3.1-3.1C24.2,21.5,22.8,20,21.1,20z
		 M21.1,24.2c-0.6,0-1-0.5-1-1c0-0.6,0.5-1,1-1c0.6,0,1,0.5,1,1C22.1,23.8,21.7,24.2,21.1,24.2z"/>
	<path class="st1" d="M13.8,22.1h2.1v2.1h-2.1V22.1z"/>
</g>
</svg>
